!!!COM:	Bach, Johann Sebastian
!!!CDT:	1685/02/21/-1750/07/28/
!!!OTL@@DE:	O Haupt voll Blut und Wunden
!!!SCT:	BWV 248/5
!!!PC#:	345
!!!AGN:	chorale
**kern	**kern	**kern	**kern
*ICvox	*ICvox	*ICvox	*ICvox
*Ibass	*Itenor	*Ialto	*Isoprn
*I"Bass	*I"Tenor	*I"Alto	*I"Soprano
*>[A,A,B]	*>[A,A,B]	*>[A,A,B]	*>[A,A,B]
*>norep[A,B]	*>norep[A,B]	*>norep[A,B]	*>norep[A,B]
*>A	*>A	*>A	*>A
*	*oclefC4	*oclefC3	*oclefC1
*clefF4	*clefGv2	*clefG2	*clefG2
*k[]	*k[]	*k[]	*k[]
*a:	*a:	*a:	*a:
*M4/4	*M4/4	*M4/4	*M4/4
*met(c)	*met(c)	*met(c)	*met(c)
*MM100	*MM100	*MM100	*MM100
4E	4G#	8eL	4e
.	.	8dJ	.
=1	=1	=1	=1
4F	4A	8cL	4a
.	.	8dJ	.
4GnX	4B	8dL	4g
.	.	8eJ	.
8AAL	8cL	8eL	4f
8BBJ	8dJ	8dJ	.
4C	4G	8dL	4e
.	.	8cJ	.
=2	=2	=2	=2
2FF	8AL	4c	2d
.	8G#J	.	.
.	4A	8BL	.
.	.	8AJ	.
4EE;	4G#;	4B;	4e;
4E	4G#	4e	4b
=3	=3	=3	=3
8AL	8AL	4e	4cc
8GnXJ	8BJ	.	.
8FL	4c	4a	4cc
8EJ	.	.	.
8DL	4f	4a	8bL
8BBJ	.	.	16ccL
.	.	.	16ddJJ
8EL	8eL	4g#	4b
8EEJ	8dJ	.	.
=4	=4	=4	=4
2.AA;	2.c;	2.c;	2.a;
=:|!	=:|!	=:|!	=:|!
*>B	*>B	*>B	*>B
4A	4e	8aL	4cc
.	.	8gnXJ	.
=5	=5	=5	=5
4D	8dL	4f	8bL
.	8cJ	.	8aJ
4E	4B	8eL	4g
.	.	8dJ	.
8FL	8AL	4c	4a
8EJ	8GJ	.	.
4D	8FL	4f	4b
.	8GJ	.	.
=6	=6	=6	=6
8AAL	4A	4f	2cc
8BBJ	.	.	.
4C	8GL	8eL	.
.	8FJ	8dJ	.
4CC;	4G;	4e;	4cc;
4C	4c	4e	4g
=7	=7	=7	=7
8FL	8cL	4f	4a
8EJ	8dJ	.	.
8DL	4e	8B-L	4g
8C#J	.	8AJ	.
4D	8dL	8AL	8fL
.	8c#XJ	8GJ	8eJ
4D	8dL	8AL	4f
.	8G#J	8dJ	.
=8	=8	=8	=8
2.AA;	2.A;	2.c#;	2.e;
4FF#	4A	4d	4cc
=9	=9	=9	=9
4GG	8GL	4d	8bL
.	8AJ	.	8ccJ
8GL	4B	4g	4dd
8F#J	.	.	.
4.E	8cL	8gL	4cc
.	8dJ	8f#J	.
.	4e	4g	4b
8D	.	.	.
=10	=10	=10	=10
8CL	4e	4g	2a
8AAJ	.	.	.
4D	4d	4f#	.
4GG;	4d;	4g;	4b;
8CL	4c	4g	4e
8BBJ	.	.	.
=11	=11	=11	=11
8AAL	8cL	8cL	4f
8BBJ	8BJ	8dJ	.
[4C	8BL	4c	4e
.	8AJ	.	.
8CL]	4A	4F	4d
[8BBJ	.	.	.
8BBL]	8GL	4d	8gL
8AAJ	8AJ	.	8fJ
=12	=12	=12	=12
4GG#	4B	4d	2.e;
4AA	4A	4c	.
4EE;	4G#X;	4B;	.
==	==	==	==
*-	*-	*-	*-
!!!YOR1: 371 vierstimmige Choralges&auml;nge von Johann Sebastian Bach, 
!!!YOR2: 4th ed. by Alfred D&ouml;rffel (Leipzig: Breitkopf und H&auml;rtel, 
!!!YOR2: c.1875). 178 pp. Plate "V.A.10".  reprint: J.S. Bach, 371 Four-Part 
!!!YOR4: Chorales (New York: Associated Music Publishers, Inc., c.1940).
!!!SMS: B&H, 4th ed, Alfred D&ouml;rffel, c.1875, plate V.A.10
!!!EED:  Craig Stuart Sapp
!!!EEV:  2009/05/22
